src/pos-icons/percent.svg

<?xml version="1.0" encoding="UTF-8"?><!DOCTYPE svg PUBLIC "-//W3C//DTD SVG 1.1//EN" "http://www.w3.org/Graphics/SVG/1.1/DTD/svg11.dtd"><svg xmlns="http://www.w3.org/2000/svg" xmlns:xlink="http://www.w3.org/1999/xlink" version="1.1" id="mdi-percent" width="24" height="24" viewBox="0 0 24 24"><path d="M18.5,3.5L3.5,18.5L5.5,20.5L20.5,5.5M7,4A3,3 0 0,0 4,7A3,3 0 0,0 7,10A3,3 0 0,0 10,7A3,3 0 0,0 7,4M17,14A3,3 0 0,0 14,17A3,3 0 0,0 17,20A3,3 0 0,0 20,17A3,3 0 0,0 17,14Z" /></svg>

<svg height="24" viewBox="0 0 24 24" width="24" xmlns="http://www.w3.org/2000/svg"><path d="m18.5 3.5-15 15 2 2 15-15m-13.5-1.5a3 3 0 0 0 -3 3 3 3 0 0 0 3 3 3 3 0 0 0 3-3 3 3 0 0 0 -3-3m10 10a3 3 0 0 0 -3 3 3 3 0 0 0 3 3 3 3 0 0 0 3-3 3 3 0 0 0 -3-3z"/></svg>
